X: 21751
Q: "Slow."
M: C
L: 1/16
K: C
|:\
E2G2G4 c2G2G4 | c3GA3G (cAGE) G4 |\
c'2ba a2ge e2dc c2de | A,3B,C3D E2A2A4 :|
|:\
e2g2g4 c'2g2e4 | e2g2g4 c'2g2g4 |\
e2a2 a3b c'ba^g a4 | A2a2a3b c'ba^g a2b2 |\
c'3ba3g a3gf3e | f3ed2c2 GEGc HA3B, |\


